2025-12/vike-outline.svg

<svg class="hammer" width="38" height="38" version="1.1" viewBox="-50 -50 38 38" xmlns="http://www.w3.org/2000/svg" xmlns:xlink="http://www.w3.org/1999/xlink">
<defs>
<filter id="outline-all" width="300%" height="300%" x="-1" y="-1">
<feDropShadow dx="1" dy="0" flood-color="#000" flood-opacity="1" stdDeviation="0"/>
<feDropShadow dx="-1" dy="0" flood-color="#000" flood-opacity="1" stdDeviation="0"/>
<feDropShadow dx="0" dy="-1" flood-color="#000" flood-opacity="1" stdDeviation="0"/>
<feDropShadow dx="0" dy="1" flood-color="#000" flood-opacity="1" stdDeviation="0"/>
</filter>
<linearGradient id="gradient-dynamic-7" x1="2.6887" x2="20.805" y1="-25.244" y2="-7.1277" gradientTransform="scale(1.1262 .88795)" gradientUnits="userSpaceOnUse">
<stop stop-color="#cfcfcf" offset=".22"/>
<stop stop-color="#a8a8a8" offset=".72"/>
</linearGradient>
<linearGradient id="gradient-dynamic-8" x1="-9.984" x2="16.668" y1="-20.393" y2="6.259" gradientTransform="scale(.97266 1.0281)" gradientUnits="userSpaceOnUse">
<stop stop-color="#d6d6d6" offset=".22"/>
<stop stop-color="#b5b5b5" offset=".72"/>
</linearGradient>
<linearGradient id="gradient-dynamic-9" x1="-2.0338" x2="9.7455" y1="-12.055" y2="-.27523" gradientTransform="scale(.85209 1.1736)" gradientUnits="userSpaceOnUse">
<stop stop-color="#ff0" offset=".35"/>
<stop stop-color="#ffc900" offset=".8"/>
</linearGradient>
<linearGradient id="gradient-dynamic-10" x1="1.0011" x2="18.396" y1="-22.234" y2="-4.8396" gradientTransform="scale(.99193 1.0081)" gradientUnits="userSpaceOnUse">
<stop stop-color="#e0e0e0" offset=".22"/>
<stop stop-color="#ccc" offset=".72"/>
</linearGradient>
<linearGradient id="gradient-dynamic-11" x1="-10.551" x2="5.7823" y1="-9.1942" y2="7.1395" gradientTransform="scale(.95257 1.0498)" gradientUnits="userSpaceOnUse">
<stop stop-color="#b8b8b8" offset=".22"/>
<stop stop-color="#7d7d7d" offset=".72"/>
</linearGradient>
<linearGradient id="gradient-dynamic-12" y2="1">
<stop stop-color="#f5ae56" offset=".22"/>
<stop stop-color="#c76125" offset=".72"/>
</linearGradient>
<linearGradient id="gradient-dynamic-13" y2="1">
<stop stop-color="#c4c4c4" offset=".22"/>
<stop stop-color="#a3a3a3" offset=".72"/>
</linearGradient>
<linearGradient id="linearGradient337" x1="-13.886" x2="-6.127" y1="7.0073" y2="14.766" gradientTransform="scale(1.0146 .98565)" gradientUnits="userSpaceOnUse" xlink:href="#gradient-dynamic-13"/>
<linearGradient id="linearGradient339" x1="-13.911" x2="-7.6663" y1="8.8513" y2="15.096" gradientTransform="scale(1.0247 .9759)" gradientUnits="userSpaceOnUse" xlink:href="#gradient-dynamic-13"/>
<linearGradient id="linearGradient343" x1="-12.149" x2="-5.9045" y1="6.8934" y2="13.138" gradientTransform="scale(1.0246 .97601)" gradientUnits="userSpaceOnUse" xlink:href="#gradient-dynamic-13"/>
<linearGradient id="linearGradient347" x1="-11.994" x2="9.9591" y1="-9.931" y2="12.023" gradientTransform="scale(.98611 1.0141)" gradientUnits="userSpaceOnUse" xlink:href="#gradient-dynamic-12"/>
<linearGradient id="linearGradient349" x1="-11.588" x2="-5.9954" y1="7.01" y2="12.602" gradientTransform="scale(1.0273 .97347)" gradientUnits="userSpaceOnUse" xlink:href="#gradient-dynamic-12"/>
<linearGradient id="linearGradient351" x1="4.042" x2="9.6349" y1="-10.423" y2="-4.8297" gradientTransform="scale(1.0272 .97356)" gradientUnits="userSpaceOnUse" xlink:href="#gradient-dynamic-12"/>
</defs>
<g transform="translate(-35.588 -27.158)" filter="url(#outline-all)">
<path d="m-4.868-10.713 0.368 2.511 1.668-1.061z" fill="#7d7d7d" stroke-linecap="round" stroke-linejoin="round"/>
<g fill="#a3a3a3" stroke-linecap="round" stroke-linejoin="round">
<path d="m5.836-22.026-10.704 11.313 2.036 1.45 10.703-11.314z"/>
<path d="m12.019 6.435-2.035 1.449-15.22-16.086 2.036-1.45z"/>
<path d="m23.091-4.49-10.704 11.314-15.219-16.087 10.703-11.314z"/>
</g>
<path d="m5.836-22.026h2.743l-0.708 1.449z" fill="#dcdbdb" stroke-linecap="round" stroke-linejoin="round"/>
<path d="m7.843-22.026-0.518 1.06 15.588 16.476 0.517-1.061z" fill="#a3a3a3" stroke-linecap="round" stroke-linejoin="round"/>
<path d="m-9.249 9.776-1.806 1.909" stroke="url(#linearGradient337)" stroke-width="8.35"/>
<g stroke-linecap="round" stroke-linejoin="round">
<path d="m-12.302 11.685c-1.449-1.531-2.03-2.722-1.329-2.722 0.702 0 2.374 1.191 3.823 2.722s2.03 2.722 1.329 2.722c-0.702 0-2.374-1.191-3.823-2.722" fill="url(#linearGradient339)" stroke="url(#linearGradient339)" stroke-width=".65"/>
<path d="m-10.496 9.776c1.449 1.531 3.121 2.722 3.823 2.722 0.701 0 0.12-1.191-1.329-2.722-1.448-1.532-3.121-2.723-3.822-2.723-0.702 0-0.121 1.191 1.328 2.723" fill="url(#linearGradient343)" stroke="url(#linearGradient343)" stroke-width=".65"/>
<path d="m-10.051-10.713h5.183v2.122h-5.183z" fill="#a3a3a3"/>
<path d="m-10.051-10.713h5.183l10.704-11.313h-5.183z" fill="#a3a3a3"/>
</g>
<path d="m7.024-7.425-16.055 16.971" stroke="url(#linearGradient347)" stroke-width="7.7"/>
<g stroke-linecap="round" stroke-linejoin="round">
<path d="m-10.278 9.546c-1.449-1.531-2.03-2.722-1.329-2.722 0.702 0 2.374 1.191 3.823 2.722s2.03 2.722 1.328 2.722c-0.701 0-2.374-1.191-3.822-2.722" fill="url(#linearGradient349)"/>
<path d="m5.777-7.425c1.449 1.532 3.121 2.723 3.823 2.723 0.701 0 0.12-1.191-1.329-2.723-1.448-1.531-3.121-2.722-3.822-2.722-0.702 0-0.121 1.191 1.328 2.722" fill="url(#linearGradient351)"/>
<path d="m10.352 7.495h-5.183l-15.22-16.086h5.183z" fill="#a3a3a3"/>
<path d="m0.653-22.026h7.926-5.183z" fill="#dcdbdb"/>
<path d="m23.43-6.329h-5.183l-15.219-16.086h5.183z" fill="url(#gradient-dynamic-7)"/>
<path d="m12.726 7.884h-5.182l10.703-11.313h5.183z" fill="#ababab"/>
<path d="m-10.051-10.713v2.122l0.518-1.061z" fill="#d6d6d6"/>
<path d="m23.43-3.429h-5.183v-2.9h5.183z" fill="#dcdbdb"/>
<path d="m0.653-22.026-10.704 11.313 0.518 1.061 10.704-11.314z" fill="#d6d6d6"/>
<path d="m-9.711-9.652-0.34 1.061 15.22 16.086 0.339-1.06z" fill="url(#gradient-dynamic-11)"/>
<path d="m0.653-22.026 2.375-0.389-2.035 1.449z" fill="#dedede"/>
<path d="m7.544 7.884-2.375-0.389 0.339-1.06z" fill="#7d7d7d"/>
<path d="m0.993-20.966-10.704 11.314 15.219 16.087 10.704-11.314z" fill="url(#gradient-dynamic-8)"/>
<path d="m4.657-10.799-1.827 1.937-3.8-4.806-1e-3 1e-3 -0.069-0.091-0.309-0.089-0.084 0.063 0.034 0.247 2.917 9.447 0.198 0.227 0.215 0.21 1.81-1.954 3.801 4.805v-2e-3l0.069 0.092 0.309 0.089 0.084-0.063-0.034-0.247-2.834-9.748-0.198-0.227z" fill="url(#gradient-dynamic-9)" stroke="url(#gradient-dynamic-9)" stroke-width=".6"/>
<path d="m18.247-6.329-2.035 1.45-15.219-16.087 2.035-1.449z" fill="url(#gradient-dynamic-10)"/>
<path d="m18.247-3.429-10.703 11.313-2.036-1.449 10.704-11.314z" fill="#a3a3a3"/>
<path d="m18.247-3.429v-2.9l-2.035 1.45z" fill="#dcdbdb"/>
</g>
</g>
</svg>

<svg xmlns="http://www.w3.org/2000/svg" width="100" height="100" class="hammer" style="height:100%;width:100%;touch-action:none" viewBox="-50 -50 100 100">
    <defs>
        <!-- Combined 4-direction outline filter -->
        <filter id="outline-all" width="300%" height="300%" x="-1" y="-1">
            <feDropShadow dx="1" dy="0" flood-color="#000" flood-opacity="1" stdDeviation="0"/>
            <feDropShadow dx="-1" dy="0" flood-color="#000" flood-opacity="1" stdDeviation="0"/>
            <feDropShadow dx="0" dy="-1" flood-color="#000" flood-opacity="1" stdDeviation="0"/>
            <feDropShadow dx="0" dy="1" flood-color="#000" flood-opacity="1" stdDeviation="0"/>
        </filter>

        <!-- Gradients -->
        <linearGradient id="gradient-dynamic-0" x1="0" x2="1" y1="0" y2="1" gradientUnits="objectBoundingBox">
            <stop offset="22%" stop-color="#bababa"/>
            <stop offset="72%" stop-color="#929090"/>
        </linearGradient>
        <linearGradient id="gradient-dynamic-1" x1="0" x2="1" y1="0" y2="1" gradientUnits="objectBoundingBox">
            <stop offset="22%" stop-color="#bdbdbd"/>
            <stop offset="72%" stop-color="#8c8c8c"/>
        </linearGradient>
        <linearGradient id="gradient-dynamic-2" x1="0" x2="1" y1="0" y2="1" gradientUnits="objectBoundingBox">
            <stop offset="22%" stop-color="#ffff00"/>
            <stop offset="72%" stop-color="#ffb300"/>
        </linearGradient>
        <linearGradient id="gradient-dynamic-3" x1="0" x2="1" y1="0" y2="1" gradientUnits="objectBoundingBox">
            <stop offset="22%" stop-color="#d1d1d1"/>
            <stop offset="72%" stop-color="#ababab"/>
        </linearGradient>
        <linearGradient id="gradient-dynamic-4" x1="0" x2="1" y1="0" y2="1" gradientUnits="objectBoundingBox">
            <stop offset="22%" stop-color="#ababab"/>
            <stop offset="72%" stop-color="#757575"/>
        </linearGradient>
        <linearGradient id="gradient-dynamic-5" x1="0" x2="1" y1="0" y2="1" gradientUnits="objectBoundingBox">
            <stop offset="22%" stop-color="#e9a107"/>
            <stop offset="72%" stop-color="#a33c00"/>
        </linearGradient>
        <linearGradient id="gradient-dynamic-6" x1="0" x2="1" y1="0" y2="1" gradientUnits="objectBoundingBox">
            <stop offset="22%" stop-color="#c2c2c2"/>
            <stop offset="72%" stop-color="#a1a1a1"/>
        </linearGradient>
        <linearGradient id="gradient-dynamic-7" x1="0" x2="1" y1="0" y2="1" gradientUnits="objectBoundingBox">
            <stop offset="22%" stop-color="#cfcfcf"/>
            <stop offset="72%" stop-color="#a8a8a8"/>
        </linearGradient>
        <linearGradient id="gradient-dynamic-8" x1="0" x2="1" y1="0" y2="1" gradientUnits="objectBoundingBox">
            <stop offset="22%" stop-color="#d6d6d6"/>
            <stop offset="72%" stop-color="#b5b5b5"/>
        </linearGradient>
        <linearGradient id="gradient-dynamic-9" x1="0" x2="1" y1="0" y2="1" gradientUnits="objectBoundingBox">
            <stop offset="35%" stop-color="#ffff00"/>
            <stop offset="80%" stop-color="#ffd500"/>
        </linearGradient>
        <linearGradient id="gradient-dynamic-10" x1="0" x2="1" y1="0" y2="1" gradientUnits="objectBoundingBox">
            <stop offset="22%" stop-color="#e0e0e0"/>
            <stop offset="72%" stop-color="#cccccc"/>
        </linearGradient>
        <linearGradient id="gradient-dynamic-11" x1="0" x2="1" y1="0" y2="1" gradientUnits="objectBoundingBox">
            <stop offset="22%" stop-color="#b8b8b8"/>
            <stop offset="72%" stop-color="#7d7d7d"/>
        </linearGradient>
        <linearGradient id="gradient-dynamic-12" x1="0" x2="1" y1="0" y2="1" gradientUnits="objectBoundingBox">
            <stop offset="22%" stop-color="#ffb152"/>
            <stop offset="72%" stop-color="#aa5422"/>
        </linearGradient>
        <linearGradient id="gradient-dynamic-13" x1="0" x2="1" y1="0" y2="1" gradientUnits="objectBoundingBox">
            <stop offset="22%" stop-color="#c7c7c7"/>
            <stop offset="72%" stop-color="#949494"/>
        </linearGradient>
    </defs>

    <!-- Hammer with all 4-direction outlines -->
    <g filter="url(#outline-all)" transform="rotate(0,0,0)">
        <!-- All your original hammer paths go here -->
        <path fill="#7d7d7d" stroke-linecap="round" stroke-linejoin="round" d="M-4.868,-10.713 L-4.5,-8.202 L-2.832,-9.263 Z"/>
        <path fill="#a3a3a3" stroke-linecap="round" stroke-linejoin="round" d="M5.836,-22.026 L-4.868,-10.713 L-2.832,-9.263 L7.871,-20.577 Z"/>
        <path fill="#a3a3a3" stroke-linecap="round" stroke-linejoin="round" d="M12.019,6.435 L9.984,7.884 L-5.236,-8.202 L-3.2,-9.652 Z"/>
        <path fill="#a3a3a3" stroke-linecap="round" stroke-linejoin="round" d="M23.091,-4.49 L12.387,6.824 L-2.832,-9.263 L7.871,-20.577 Z"/>
        <path fill="#dedede" stroke-linecap="round" stroke-linejoin="round" d="M5.836,-22.026 L8.579,-22.026 L7.871,-20.577 Z"/>
        <path fill="#d6d6d6" stroke-linecap="round" stroke-linejoin="round" d="M12.726,7.884 L10.719,7.884 L12.209,6.824 Z"/>
        <path fill="#a3a3a3" stroke-linecap="round" stroke-linejoin="round" d="M7.843,-22.026 L7.325,-20.966 L22.913,-4.49 L23.43,-5.551 Z"/>
        <path stroke="url(#gradient-dynamic-13)" stroke-width="8.7" d="M-9.366,9.899 L-11.172,11.809 "/>
        <path fill="url(#gradient-dynamic-13)" stroke="url(#gradient-dynamic-13)" stroke-linecap="round" stroke-linejoin="round" stroke-width="1" d="M-12.419,11.809 C-13.868,10.277 -14.449,9.086 -13.748,9.086 C-13.046,9.086 -11.374,10.277 -9.925,11.809 C-8.476,13.34 -7.895,14.531 -8.596,14.531 C-9.298,14.531 -10.97,13.34 -12.419,11.809 "/>
        <path fill="url(#gradient-dynamic-13)" stroke="url(#gradient-dynamic-13)" stroke-linecap="round" stroke-linejoin="round" stroke-width="1" d="M-10.613,9.899 C-9.164,11.431 -7.492,12.622 -6.79,12.622 C-6.089,12.622 -6.67,11.431 -8.119,9.899 C-9.567,8.368 -11.24,7.177 -11.941,7.177 C-12.643,7.177 -12.062,8.368 -10.613,9.899 "/>
        <path fill="#d6d6d6" stroke-linecap="round" stroke-linejoin="round" d="M23.43,-3.429 L12.726,7.884 L12.209,6.824 L22.913,-4.49 Z"/>
        <path fill="#a3a3a3" stroke-linecap="round" stroke-linejoin="round" d="M-10.051,-10.713 L-4.868,-10.713 L-4.868,-8.591 L-10.051,-8.591 Z"/>
        <path fill="#a3a3a3" stroke-linecap="round" stroke-linejoin="round" d="M-10.051,-10.713 L-4.868,-10.713 L5.836,-22.026 L0.653,-22.026 Z"/>
        <path stroke="url(#gradient-dynamic-12)" stroke-width="7.7" d="M7.024,-7.425 L-9.031,9.546 "/>
        <path fill="url(#gradient-dynamic-12)" stroke-linecap="round" stroke-linejoin="round" d="M-10.278,9.546 C-11.727,8.015 -12.308,6.824 -11.607,6.824 C-10.905,6.824 -9.233,8.015 -7.784,9.546 C-6.335,11.077 -5.754,12.268 -6.456,12.268 C-7.157,12.268 -8.83,11.077 -10.278,9.546 "/>
        <path fill="url(#gradient-dynamic-12)" stroke-linecap="round" stroke-linejoin="round" d="M5.777,-7.425 C7.226,-5.893 8.898,-4.702 9.6,-4.702 C10.301,-4.702 9.72,-5.893 8.271,-7.425 C6.823,-8.956 5.15,-10.147 4.449,-10.147 C3.747,-10.147 4.328,-8.956 5.777,-7.425 "/>
        <path fill="#a3a3a3" stroke-linecap="round" stroke-linejoin="round" d="M10.352,7.495 L5.169,7.495 L-10.051,-8.591 L-4.868,-8.591 Z"/>
        <path fill="#dcdbdb" stroke-linecap="round" stroke-linejoin="round" d="M0.653,-22.026 L5.836,-22.026 L8.579,-22.026 L3.396,-22.026 Z"/>
        <path fill="#a3a3a3" stroke-linecap="round" stroke-linejoin="round" d="M12.726,7.884 L7.544,7.884 L5.537,7.884 L10.719,7.884 Z"/>
        <path fill="url(#gradient-dynamic-7)" stroke-linecap="round" stroke-linejoin="round" d="M23.43,-6.329 L18.247,-6.329 L3.028,-22.415 L8.211,-22.415 Z"/>
        <path fill="#ababab" stroke-linecap="round" stroke-linejoin="round" d="M12.726,7.884 L7.544,7.884 L18.247,-3.429 L23.43,-3.429 Z"/>
        <path fill="#d6d6d6" stroke-linecap="round" stroke-linejoin="round" d="M-10.051,-10.713 L-10.051,-8.591 L-9.533,-9.652 Z"/>
        <path fill="#dcdbdb" stroke-linecap="round" stroke-linejoin="round" d="M23.43,-3.429 L18.247,-3.429 L18.247,-6.329 L23.43,-6.329 Z"/>
        <path fill="#d6d6d6" stroke-linecap="round" stroke-linejoin="round" d="M0.653,-22.026 L-10.051,-10.713 L-9.533,-9.652 L1.171,-20.966 Z"/>
        <path fill="url(#gradient-dynamic-11)" stroke-linecap="round" stroke-linejoin="round" d="M-9.711,-9.652 L-10.051,-8.591 L5.169,7.495 L5.508,6.435 Z"/>
        <path fill="#dedede" stroke-linecap="round" stroke-linejoin="round" d="M0.653,-22.026 L3.028,-22.415 L0.993,-20.966 Z"/>
        <path fill="#7d7d7d" stroke-linecap="round" stroke-linejoin="round" d="M7.544,7.884 L5.169,7.495 L5.508,6.435 Z"/>
        <path fill="url(#gradient-dynamic-8)" stroke-linecap="round" stroke-linejoin="round" d="M0.993,-20.966 L-9.711,-9.652 L5.508,6.435 L16.212,-4.879 Z"/>
        <path fill="url(#gradient-dynamic-9)" stroke="url(#gradient-dynamic-9)" stroke-linecap="round" stroke-linejoin="round" stroke-width="0.6" d="M4.657,-10.799 L2.83,-8.862 L-0.97,-13.668 L-0.971,-13.667 L-1.04,-13.758 L-1.349,-13.847 L-1.433,-13.784 L-1.399,-13.537 L1.518,-4.09 L1.716,-3.863 L1.931,-3.653 L3.741,-5.607 L7.542,-0.802 L7.542,-0.804 L7.611,-0.712 L7.92,-0.623 L8.004,-0.686 L7.97,-0.933 L5.136,-10.681 L4.938,-10.908 Z"/>
        <path fill="url(#gradient-dynamic-10)" stroke-linecap="round" stroke-linejoin="round" d="M18.247,-6.329 L16.212,-4.879 L0.993,-20.966 L3.028,-22.415 Z"/>
        <path fill="#a3a3a3" stroke-linecap="round" stroke-linejoin="round" d="M18.247,-3.429 L7.544,7.884 L5.508,6.435 L16.212,-4.879 Z"/>
        <path fill="#dedede" stroke-linecap="round" stroke-linejoin="round" d="M18.247,-3.429 L18.247,-6.329 L16.212,-4.879 Z"/>
    </g>
</svg>
